omega/mobile/images/sports/matches.svg

<svg enable-background="new 0 0 511.9 511.9" viewBox="0 0 511.9 511.9" xmlns="http://www.w3.org/2000/svg"><path d="m259 205.3c-26.3 0-48 20.8-50.2 46h100.4c-2.2-25.2-23.9-46-50.2-46z"/><path d="m189.2 43.6h146.9v26.7h-146.9z"/><path d="m259 321c-32.1 0-58.8-25.1-63.2-54.8h-110.5v188.8c0 10.5 8.5 19 19 19h71.6v-33.8c0-3.7 2.5-6.3 6.3-6.3h161.3c3.7 0 6.2 2.5 6.2 6.3v33.8h60.8c9 0 16.4-7.3 16.4-16.4v-191.4h-104.7c-4.4 29.7-31.1 54.8-63.2 54.8z"/><path d="m349.5 43.6v33.8c0 3.7-2.5 6.3-6.2 6.3h-161.2c-3.7 0-6.3-2.5-6.3-6.3v-33.8h-71.3c-10.6 0-19.2 8.6-19.2 19.2v188.6h110.1c2.3-32.7 29.9-59.5 63.7-59.5 33.7 0 61.4 26.8 63.7 59.5h104v-191.4c0-9.1-7.3-16.4-16.4-16.4z"/><path d="m259 307.5c24.7 0 45.3-19.1 49.6-41.3h-99.2c4.3 22.3 24.9 41.3 49.6 41.3z"/><path d="m189.2 447.3h146.9v26.7h-146.9z"/></svg>

<?xml version="1.0" encoding="utf-8"?>
<!-- Generator: Adobe Illustrator 19.2.0, SVG Export Plug-In . SVG Version: 6.00 Build 0)  -->
<svg version="1.1" xmlns="http://www.w3.org/2000/svg" xmlns:xlink="http://www.w3.org/1999/xlink" x="0px" y="0px"
	 viewBox="0 0 511.9 511.9" style="enable-background:new 0 0 511.9 511.9;" xml:space="preserve">
<style type="text/css">
	.st0{display:none;}
	.st1{display:inline;}
	.st2{display:inline;fill:none;stroke:#000000;stroke-width:35;stroke-linecap:round;stroke-miterlimit:10;}
	.st3{display:inline;fill:none;stroke:#000000;stroke-width:19;stroke-linecap:round;stroke-miterlimit:10;}
</style>
<g id="Layer_1" class="st0">
	<path id="Selection" class="st1" d="M100.1,279.1c-20.2-7.6-37.1-19.2-51.8-35c-25-26.8-36.5-62.5-36.1-98.6l0.7-7.2
		c1.3-18.1,6.2-34.9,14.3-51.1c17.6-35.3,49-60.8,87.3-70.5c7-1.8,17.4-3.6,24.5-3.7c21-0.2,36.3,1.1,56.2,9
		c53.4,21.2,86.3,73.9,85.7,130.7c-0.1,7.2-2.1,24.2-4.3,31l18.7-6.5c10-3.1,27.1-6.4,37.4-6.5H347c20.4,0,45.8,7.1,64.1,16
		c16.2,7.9,30.5,18.8,43.2,31.5c59,59,63.7,155.6,12.5,221c-16.5,21.1-34.8,34.8-58.6,46.6c-15,7.5-41.5,14.6-58.3,14.6h-18
		c-8.2,0-20.1-2.1-28.1-4.1c-29.7-7.4-51.6-20.1-74.2-40.7L213.1,437c-3.2,7.1-8.6,14.9-13.6,20.9c-33.6,40.4-94,47.6-136.1,16.2
		c-37.6-28-51.3-77.7-35.2-121.3c4.9-13.3,14.7-29.1,25.2-38.6c13.2-11.9,28.6-21.3,46.1-25.2l14.4-2.4c4.2-0.3,6.5,0.4,10.8-0.8
		L100.1,279.1z M172.8,29.8l-14.4-2.5h-6.5c-2.8-0.3-4.1-0.8-7.2-0.7c-28.8,1.6-53.4,9.8-75.6,28.8c-7.2,6.2-7.4,6.3-13.6,13.6
		c-1.4,1.6-3.9,4.3-3.9,6.5c0,1.8,1.9,4.3,2.8,5.8c3.2,4.7,7.1,9.6,11,13.7c3.4,3.5,7.9,8.8,12.2,10.8c10.5-18.8,33-40.3,51.1-51.8
		l16.6-8.9c9.4-4.6,27.1-10.9,37.4-11.3C180.7,31,176.1,30.6,172.8,29.8z M193,38.8c-8,0.5-17.5,2.4-25.2,4.6
		c-27.3,7.8-50.5,23.1-69.2,44.4c-4.7,5.3-14.3,16.2-15.7,23l4.3,2.2c8.1-12.1,15.9-22.3,26.6-32.3c25.4-23.6,57.5-36.8,92.2-36.8
		C203.2,39.8,197.6,38.5,193,38.8z M216.7,50.6h-17.3c-7.3-0.1-16.6,1.4-23.8,3.2C150.3,60.1,131.5,71.5,113,90
		c-7.3,7.3-16.6,17.9-20.9,27.4c11.7,5.6,16.3,8.9,29.5,12.7c10.6,3,17.5,3.2,28.1,4.6c3.7-6.6,9.4-13.7,14.3-19.4
		c20.6-23.9,40.9-37.4,69.9-49C231.5,62,221.3,51.9,216.7,50.6z M241.8,76.1c-1.9-0.6-5.3,0.8-7.1,1.5l-15.8,7.2
		c-18.9,9.5-35.5,23.5-48.9,39.8c-2.5,3-10.7,13.2-11.1,16.6c-0.2,2,1,4.6,1.7,6.5h1.4c3.7-6.6,10.8-15.1,15.7-20.9
		c15.4-17.9,34.6-32.6,57-40.5l12.2-3.4C246,80.7,244.1,76.9,241.8,76.1z M44.8,100.1c4.2,5.1,8.7,9.8,13.5,14.4
		c14.8,14.1,35.9,26.9,55.4,33.1c8.9,2.8,16.1,4.1,25.2,5.8l2.2-5.8l-7.2-1.2c-6.9-1.2-14.3-2.8-20.9-5.1
		c-29.4-10.2-51.9-28.2-69.8-53.5C38.2,92.8,41,95.5,44.8,100.1z M235.4,211.1c3.4-3.1,9.2-7.7,13-10.4c2.9-2.1,9.5-5.7,11.1-8.6
		c1.5-2.7,4-13,4.7-16.4c1.4-6.8,1.8-13.3,2.2-20.2l0.6-5.8l-0.6-5.8l-1.6-15.8c-1.4-8.3-3.8-16.7-6.9-24.5
		c-0.9-2.2-2.8-7.5-4.3-8.9c-2.4-2.2-7.5-0.3-10.3,0.4c-7.9,2-16,5.5-23,9.6c-1.9,1.1-6.7,3.6-7.4,5.7c-0.6,1.8,1.5,7.8,2.1,9.8
		l5.5,23c4.8,24.7,6.3,49.8,6.3,74.9C230.8,216.3,232.3,214,235.4,211.1z M136.8,166.4c-27.8-3.9-52.6-14.8-74.9-31.9
		c-7.7-5.9-12-10.4-18.7-17.1c-3.1-3.1-6.3-7.5-10.1-9.4c-2,6.1-3.8,12.4-4.9,18.7c-0.4,2.3-1.2,5.7-0.5,7.9c1,3.2,5.8,7.6,8.2,10.1
		l18.7,17.5c22.1,18.5,48.2,35.9,77,41.1c8.5,1.5,14.5,1.2,23,1.2c0-13-1.9-24-4.3-36.7L136.8,166.4z M201.9,118.8
		c-0.7,2,1,5.9,1.7,7.9l4.7,16.6c6.7,28.2,9.3,56.8,9.3,85.7c3.3-3,2.9-4.5,2.9-8.6v-19.4l-0.7-10.8c-0.1-11.3-1.8-22.7-3.4-33.8
		c-1.7-11.5-5.6-31.1-9.6-41.8C204.8,115.5,202.6,116.7,201.9,118.8z M171.6,151.9c-1.6,2.5-5.9,8.1-6.2,10.8l2.2,12.2l2.4,20.2
		l0.7,7.2c0.2,17.3-1.3,32.7-4.5,49.7l-4.9,20.2c8-0.4,16.9-3,24.5-5.5c2.9-1,8.4-2.7,10.5-4.8l8-13.4c4.2-6.8,6.7-7.7,6.7-15.8
		v-20.2l-0.7-8.6V198c-1-14.2-3.1-28.5-5.9-42.5c-1.6-8-5.4-24.6-8.5-31.7C188.4,129.2,176.9,144,171.6,151.9z M29.5,154.1
		l18.7,18.4c21.5,18.7,48.2,38.5,76.3,45.6c7.5,1.9,15.3,3.6,23,3.7c1.7,0,5.3,0.3,6.5-1.2c1.1-1.4,0.7-7.7,0.7-9.6l-5.8,0.5l-5-0.4
		c-32.3-1.4-61.8-19-86.4-38.6c-9.2-7.3-22.9-19.5-30.2-28.4C24.4,148,26.5,150.9,29.5,154.1z M28,172.1c1.7,10.4,5.3,22.3,10,31.7
		c6.2,12.6,14.1,24.5,24,34.6c18.4,18.7,50.4,34.5,77,34.6h5.8l4.7-17.3l4.6-27.4c-50.9,0-92.5-33.4-126.7-67.7
		C26.1,163.8,27.5,168.7,28,172.1z M326.9,194.5c-5.8,0.5-11.7,1.6-17.3,3c-2.4,0.6-7.3,1.5-9,3.1c-1.7,1.5-4.4,8.1-3.9,10.3
		c0.3,1.5,2.4,4.4,3.3,5.8c2.9,4.3,8.3,11,12.5,14c4.4,3.1,9.4,0,14.4-1c6.7-1.4,14.2-0.9,20.9,0.8c2.5,0.7,11.5,4.6,13,4.3
		c2.4-0.4,5.5-4.7,7-6.6c4.1-5,9.1-13.2,10.8-19.4c0.7-2.7,0.5-7.5-1.7-9.5c-1.8-1.6-7.9-2.6-10.4-3c-8.1-1.5-22.9-3.1-31-2.4
		L326.9,194.5z M286.4,225.5c-0.9,3.1,6.1,11.2,8.1,13.6c0.8,0.9,2.7,3.2,3.7,3.8c2.3,1.2,4.5-1,4-3.1c-0.4-1.4-2.3-3.3-3.4-4.3
		l-4.6-5l-5.5-7.2C287.6,223.8,286.8,224.1,286.4,225.5z M377.4,236.9c-1.1,1.4-4.6,5.1-4.9,6.5c-0.5,1.8,0.7,2.6,1.9,3.6l11.8-13
		l3.4-6.5l-2.2-4.3L377.4,236.9z M262.1,239.9l-16.6,3.6l-10.1,9l-14,11.8l-6.1,11.4l-5.5,15.1l3,7.2l7.4,14.4c4.5-2,8.9-6.6,13-9.8
		c7.4-5.7,15-11,23-15.8c5.3-3.2,11.6-6.5,17.3-9c2-0.9,10-4,11.2-5c1.6-1.4,3.2-8.9,4.3-11.5c0.5-1.3,1.8-3.8,1.9-5
		c0.1-2.6-3.2-5.3-4.9-7.2c-3.4-4-8-9.7-10.3-14.4L262.1,239.9z M387.4,252c-2,2-5.5,4.8-5.4,7.9c0.1,1.6,3.3,12.1,4.3,13.2
		c1.1,1.1,4.4,2.2,6.1,2.9l13,5.7c11.1,5.4,21.8,12.3,31.7,19.7l13,10.5c1.4,1.2,3.6,3.7,5.7,3.2c1.9-0.5,7.1-7.9,8.8-9.8
		c2-2.3,8-7.4,8.6-10.1c0.5-2.3-3.1-11.2-4.1-13.7c-4.2-10.3-9.5-20.6-16-29.5c-1.5-2-5.5-7.7-7.4-8.8c-2.5-1.7-5.9-0.5-8.6,0h-12.2
		c-5.4,0.2-10.1-0.7-15.1-2.5c-4-1.4-5.7-3-10.1-3.8C396.4,242.5,391.9,247.4,387.4,252z M180,283l-17.3,3.4l-9.4,0.8l-12.2,0.7
		c9.2,2.4,16.4,4.3,25.2,8.5l15.8,8.8l6.5-24.5L180,283z M239,314.8c-2.9,2.3-11.6,8.8-12.3,12.1c-0.3,1.4,0.4,3,0.8,4.3l20.2-16.3
		c11.9-9.2,24.9-17,38.9-22.6l-0.7-5C269.4,293,252.6,304.1,239,314.8z M448,329c-0.8-3.3-9.5-9.8-12.4-12.1
		c-10.5-8.4-21.8-15.9-33.8-21.9c-5.4-2.7-10.7-5.6-16.5-7c-0.2,1.5-0.8,4,0,5.3c0.9,1.4,11.4,6,13.7,7.1c9.4,4.8,22.6,13.6,31,20.1
		c4.5,3.5,12.9,11.5,17.3,13.5C447.6,332.6,448.4,330.6,448,329z M301.7,318c-2.3-2.1-5.3-5.9-7.2-8.4c-1.1-1.6-2.2-3.7-4.4-3.8
		c-2-0.1-7.4,2.7-9.3,3.6c-7.2,3.6-13.6,7.4-20.2,12.1c-7.3,5.2-14.2,11-20.9,17c-2.2,2-7.3,6.6-8.2,9.2c-0.6,1.7-0.5,8.6-0.4,10.8
		c0.1,5.9,2.9,7.2,7.2,10.7l17.3,12.6c9.7,6.5,24.3,14.3,35.3,18c2.2,0.7,10.6,3.7,12.2,3.7c3.2,0,8.4-5.7,11.5-7.8
		c2.8-1.9,6.9-3.9,10.1-5.1c1.4-0.5,4.2-1.1,5-2.3c0.8-1.3,0.2-3.8,0-5.4v-11.5l-0.7-10.8l-0.7-29.5
		C317.6,329,309.9,325.5,301.7,318z M443.5,358.6c0-2,0.2-6.2-0.4-7.9c-1.2-3.1-11.6-11.8-14.7-14.3c-13.7-11.4-32.8-24.4-49.7-30.3
		c-4.9,8.7-12.1,15.6-20.9,20.2c-2.5,1.3-5.9,2.6-8.6,3.4c-1.5,0.4-4.1,0.8-5.1,2.1c-1.1,1.5-0.3,4.3,0,6v13l0.8,10.1v11.5l0.7,7.2
		c0,1.8-0.3,6.8,0.7,8.1c1,1.2,4.2,1.6,5.8,2c3.6,1,7.6,2.5,10.8,4.3c3.6,2,12,9.4,14.4,9.8c2.2,0.4,5.2-1.1,7.2-2.1l12.2-6.1
		l31-15.5l17.3-8.5L443.5,358.6z M56.6,356.4c3.3,20.5,8.2,31.1,26.2,42.7c4.3,2.8,7.7,4.5,12.2,6.8c2.3,1.2,3.9,2.3,6.5,1.6
		c-8.7-6.1-18-13-25.1-20.9c-9.8-11-18.9-32.1-21-46.8C54.1,343.3,56,352.5,56.6,356.4z M227.8,384.5c0.9,2.6,10.1,9.6,12.7,11.6
		c14.6,11.2,35.4,23.2,53.3,28l2.9-8.6c-17.5-4-38.5-16.1-53.3-26.2L229,378.7C228.1,380.4,227.1,382.6,227.8,384.5z M428.4,397.9
		c-15.4,8.4-27.1,13.3-43.9,18.2l2.2,8.6c15.6-3.6,36.1-14.2,49.7-22.7l10.1-6.7c1.3-0.9,3.3-2.2,3.7-3.8c0.4-1.7-0.9-4.1-1.6-5.6
		L428.4,397.9z M225.4,414c3.3,5.3,7.1,10.3,11.2,15.1c17,20.2,44.2,38,70.1,43.9c-3.8-5.7-6.8-8.4-9.9-15.1l-4.3-11.2
		c-1.4-1.6-6-3.1-8.1-4c-5.4-2.2-10.8-4.6-15.8-7.5c-12.3-6.9-18.3-10.9-29.5-19.4l-15.1-12C221.5,408,223.1,410.3,225.4,414z
		 M444.2,419.8c-9.3,6.8-19.2,12.6-29.5,17.7l-18,7.8c-2.2,0.8-7.5,2.3-9,3.7c-1.2,1.2-3.5,8.1-4.6,10.3c-3.3,6.7-5.6,8.2-9.5,13.7
		c4.4-0.6,8-1.9,12.2-3.4c22.4-7.5,39.1-19.5,55.4-36.2c4.9-5,15.7-17.9,17.3-24.5L444.2,419.8z"/>
</g>
<g id="Layer_2" class="st0">
	<g>
		<path class="st1" d="M258.2,22c-84.4,0-153.1,68.7-153.1,153.1c0,34,21.7,89.5,66.4,169.5c31.6,56.6,62.7,103.8,64,105.8
			l22.8,34.5l22.8-34.5c1.3-2,32.4-49.2,64-105.8c44.7-80.1,66.4-135.5,66.4-169.5C411.4,90.7,342.7,22,258.2,22z M258.2,253.5
			c-43.8,0-79.4-35.5-79.4-79.4s35.5-79.4,79.4-79.4s79.4,35.5,79.4,79.4S302.1,253.5,258.2,253.5z"/>
	</g>
	<g class="st1">
		<g id="Camera_4_">
			<g>
				<path d="M353,111.7H54.5c-16.5,0-29.8,13.4-29.8,29.8v223.8c0,16.5,13.4,29.8,29.8,29.8H353c16.5,0,29.8-13.4,29.8-29.8V141.6
					C382.8,125.1,369.4,111.7,353,111.7z M353,335.6c0,16.5-13.4,29.8-29.8,29.8H84.4c-16.5,0-29.8-13.4-29.8-29.8V171.4
					c0-16.5,13.4-29.8,29.8-29.8h238.8c16.5,0,29.8,13.4,29.8,29.8L353,335.6L353,335.6z M476.3,157.2c-6.4-1.9-13.2,0.5-16.8,6
					l-46.9,53v89.5l46.9,53c2.8,4.2,7.6,6.7,12.5,6.7c1.4,0,2.9-0.2,4.3-0.6c6.3-1.9,10.9-7.7,10.9-14.3V171.4
					C487.3,164.9,482.7,159.1,476.3,157.2z M173.9,320.6l74.6-59.7l-74.6-59.7C173.9,201.3,173.9,320.6,173.9,320.6z"/>
			</g>
		</g>
	</g>
</g>
<g id="Layer_4" class="st0">
	<line class="st2" x1="62.8" y1="445.3" x2="432.5" y2="58.3"/>
</g>
<g id="Layer_5" class="st0">
	<g class="st1">
		<g>
			<path d="M47.8,387.3h125.9h15.4h137.6h15.4h125.9c9.3,0,16.8-7.5,16.8-16.9V248.4c0-9.3-7.5-16.8-16.8-16.8H342.2V128.3
				c0-9.3-7.5-16.8-16.9-16.8H190.6c-9.3,0-16.9,7.5-16.9,16.8v74.2H47.8c-9.3,0-16.8,7.5-16.8,16.8v151
				C31,379.8,38.5,387.3,47.8,387.3z M380.3,330.2l8.3-1c2.3-0.3,4.4,1.2,5.1,3.4c0.8,2.6,2.1,4.8,3.8,6.4c2.5,2.4,5.5,3.6,9,3.6
				c3.8,0,7-1.5,9.6-4.3c2.6-2.9,3.9-6.7,3.9-11.6c0-4.6-1.2-8.3-3.7-11c-2.5-2.7-5.5-4-9.1-4c-0.7,0-1.5,0-2.3,0.1
				c-3.1,0.3-5.7-2.4-5.3-5.5l0.6-4.3c0.3-2.2,2.1-3.9,4.3-4.1c3.2-0.4,5.7-1.4,7.6-3.1c2.6-2.3,3.9-5.3,3.9-9.1
				c0-3.2-0.9-5.8-2.9-7.7c-1.9-1.9-4.5-2.9-7.6-2.9s-5.8,1.1-8,3.2c-1.4,1.4-2.5,3.2-3.2,5.4c-0.8,2.3-3,3.7-5.4,3.3l-7.2-1.2
				c-2.9-0.5-4.7-3.4-3.8-6.2c1-3.4,2.4-6.2,4-8.5c2.4-3.5,5.7-6.2,9.9-8.1c4.2-2,9-3,14.3-3c9,0,16.2,2.9,21.7,8.6
				c4.5,4.7,6.7,10,6.7,16c0,8.4-4.6,15.1-13.8,20.1c5.5,1.2,9.9,3.8,13.2,7.9c3.3,4.1,4.9,9,4.9,14.8c0,8.4-3.1,15.6-9.2,21.5
				c-6.1,5.9-13.8,8.9-22.9,8.9c-8.7,0-15.9-2.5-21.6-7.5c-4.4-3.8-7.3-8.5-8.9-14.1C375.5,333.4,377.4,330.5,380.3,330.2z
				 M233.5,170.8c0-1.9,1.1-3.7,2.9-4.4c4-1.7,8.2-4.3,12.7-7.8c4.7-3.7,8.1-7.8,10.4-12.5c0.8-1.7,2.5-2.8,4.4-2.8h6.9
				c2.7,0,4.8,2.2,4.8,4.8v86.5c0,2.7-2.2,4.8-4.8,4.8H262c-2.7,0-4.8-2.2-4.8-4.8v-64.3c-5,4.7-10.6,8.4-16.9,11.2
				c-3.2,1.5-6.8-0.9-6.8-4.4L233.5,170.8L233.5,170.8L233.5,170.8z M77,321.2c1.1-4.3,2.8-8.4,5.2-12.4c3.5-5.8,10.4-13.4,20.7-23
				c8.3-7.7,13.4-12.9,15.2-15.7c2.5-3.8,3.8-7.5,3.8-11.2c0-4.1-1.1-7.2-3.3-9.5c-2.2-2.2-5.2-3.3-9.1-3.3c-3.8,0-6.9,1.2-9.1,3.5
				c-1.6,1.6-2.7,4-3.4,7.2c-0.5,2.4-2.7,4-5.2,3.8l-8.6-0.8c-2.9-0.3-4.8-3-4.2-5.8c1.6-7.4,4.7-12.8,9.4-16.4
				c5.7-4.4,12.9-6.6,21.6-6.6c9.5,0,16.9,2.5,22.3,7.6c5.4,5.1,8.1,11.4,8.1,19c0,4.3-0.8,8.4-2.3,12.3c-1.6,3.9-4,8-7.3,12.2
				c-2.2,2.8-6.2,6.9-12,12.2c-5.8,5.3-9.5,8.8-11,10.6c-1.6,1.7-2.8,3.4-3.8,5.1h31.6c2.7,0,4.8,2.2,4.8,4.8v7.4
				c0,2.7-2.2,4.8-4.8,4.8H81.7C78.6,327.2,76.2,324.2,77,321.2z"/>
		</g>
	</g>
</g>
<g id="Layer_6">
	<g>
		<g>
			<path d="M259,205.3c-26.3,0-48,20.8-50.2,46h100.4C307,226.1,285.3,205.3,259,205.3z"/>
			<rect x="189.2" y="43.6" width="146.9" height="26.7"/>
			<path d="M259,321c-32.1,0-58.8-25.1-63.2-54.8H85.3V455c0,10.5,8.5,19,19,19h71.6v-33.8c0-3.7,2.5-6.3,6.3-6.3h161.3
				c3.7,0,6.2,2.5,6.2,6.3V474h60.8c9,0,16.4-7.3,16.4-16.4V266.2H322.2C317.8,295.9,291.1,321,259,321z"/>
			<path d="M349.5,43.6v33.8c0,3.7-2.5,6.3-6.2,6.3H182.1c-3.7,0-6.3-2.5-6.3-6.3V43.6h-71.3c-10.6,0-19.2,8.6-19.2,19.2v188.6
				h110.1c2.3-32.7,29.9-59.5,63.7-59.5c33.7,0,61.4,26.8,63.7,59.5h104V60c0-9.1-7.3-16.4-16.4-16.4H349.5z"/>
			<path d="M259,307.5c24.7,0,45.3-19.1,49.6-41.3h-99.2C213.7,288.5,234.3,307.5,259,307.5z"/>
			<rect x="189.2" y="447.3" width="146.9" height="26.7"/>
		</g>
	</g>
</g>
<g id="Layer_3" class="st0">
	<g id="amfb" class="st1">
		<path d="M175.5,190.6c-79.4,0-143.7,64.3-143.7,143.7s64.3,143.7,143.7,143.7s143.7-64.3,143.7-143.7
			C319.2,255,254.9,190.6,175.5,190.6 M296.3,364.3c-53.5,2.9-95.2-0.6-123.9-10.2c-14.2-4.8-25.2-11.1-32.8-18.7
			c24.4-18.5,48-32.9,67.4-43.7c30.5-16.7,55.8-27.1,68.2-31.8c15.5,20.7,24.6,46.5,24.6,74.4C300,344.7,298.8,354.8,296.3,364.3
			 M266.7,249.5c-13.8,5.3-37.3,15.3-65.4,30.8c-20,11-44.3,25.8-69.4,44.9c-1.4-2.4-2.6-5-3.4-7.7c-13-38.6,27.4-90.3,44.5-107.8
			c0.9,0,1.8,0,2.7,0C211.5,209.8,244,225.1,266.7,249.5 M154,211.7c-21.4,25.3-50.7,71.7-37.8,110c1.3,4,3.1,7.9,5.3,11.4
			c-6.3,5-12.5,10.2-18.9,15.8c-23.6-34.5-24.7-61.4-25.6-84c-0.1-2.2-0.2-4.4-0.3-6.5C95.4,234.2,122.6,217.1,154,211.7
			 M76.5,351.8c-9.5-9.6-18.7-15.6-25.5-19.2c0.2-20,5.2-38.8,13.9-55.5c1.2,19.5,4.9,42.7,21.5,70.2c2,3.4,4.3,6.8,6.7,10.2
			c-2.1,2-4.2,4-6.3,6C83.5,359.3,80.2,355.4,76.5,351.8 M77.5,372.7c-4.9,5-9.6,10-14.3,15.3c-5.9-12.4-9.9-26-11.4-40.2
			C59.2,352.8,68.6,360.7,77.5,372.7 M69.7,399.9c4.9-5.7,9.9-11,15-16.3c7.5,13.1,14.2,30.1,18.1,51.7
			C89.6,425.9,78.3,413.8,69.7,399.9 M117.1,444.3c-2.6-20.1-7.4-38.2-14.6-54c-2.6-5.7-5.3-11-8.4-16c2.2-2.1,4.4-4.3,6.8-6.4
			c22.4,28.3,56,57.2,101.9,88c-8.8,2-17.9,3-27.2,3C154.4,458.8,134.5,453.6,117.1,444.3 M218.8,451.1
			c-54.7-35.5-88.1-65.8-108.5-91.8c6.3-5.5,12.8-10.9,19.1-16c22.1,23.2,66.3,34.8,132.2,34.8c9.8,0,20-0.2,30.7-0.8
			C279.8,411.5,252.7,438.5,218.8,451.1"/>
	</g>
	<path class="st3" d="M181,147.7c5.1,0,10.2,0.2,15.3,0.7c64.3,5.2,119.5,43,148.7,96.8c14.4,26.5,22.6,56.9,22.6,89.1"/>
	<path class="st3" d="M193.2,92.6c126.8,0,229.5,102.7,229.5,229.5"/>
	<path class="st3" d="M191.6,34.1c159.7,0,289.2,129.4,289.2,289.2"/>
</g>
</svg>
